rospo-icon-theme-classic-common/64x64/apps/distributor-logo-archlinux.svg

<svg height="64" width="64" xmlns="http://www.w3.org/2000/svg"><g fill-rule="evenodd"><path d="m31.995177 5.0013995c-2.493065 6.1109235-3.996691 10.1081545-6.772332 16.0367995 1.701764 1.803598 3.384686 3.58967 6.777155 5.961801-3.64718-1.500502-5.728905-2.692701-7.58806-4.255922-3.55224 7.410947-9.117808 17.967375-20.4119398 38.255922 8.8768218-5.123516 15.0577568-8.282297 21.4710578-9.487681-.27538-1.184106-.43196-2.464949-.421317-3.801373l.0098-.284337c.140841-5.685888 3.861491-10.418933 7.303378-10.426609 3.441888-.0077 6.788998 5.814788 6.648129 11.500678-.02646 1.070005-.147212 2.099133-.358095 3.05378 6.343287 1.240664 12.590372 4.391325 21.347047 9.445542-1.726691-3.178101-3.267842-6.043024-4.73954-8.771591-2.31831-1.796458-4.328099-3.697241-9.26046-6.228409 3.390226.880729 5.409397 1.459649 7.301462 2.595455-14.963434-27.854053-16.174679-31.555605-21.30672-43.5954555z" opacity=".2"/><path d="m31.995177 4.0013995c-2.493065 6.1109235-3.996691 10.1081545-6.772332 16.0367995 1.701764 1.803598 3.384686 3.58967 6.777155 5.961801-3.64718-1.500502-5.728905-2.692701-7.58806-4.255922-3.55224 7.410947-9.117808 17.967375-20.4119398 38.255922 8.8768218-5.123516 15.0577568-8.282297 21.4710578-9.487681-.27538-1.184106-.43196-2.464949-.421317-3.801373l.0098-.284337c.140841-5.685888 3.861491-10.418933 7.303378-10.426609 3.441888-.0077 6.788998 5.814788 6.648129 11.500678-.02646 1.070005-.147212 2.099133-.358095 3.05378 6.343287 1.240664 12.590372 4.391325 21.347047 9.445542-1.726691-3.178101-3.267842-6.043024-4.73954-8.771591-2.31831-1.796458-4.328099-3.697241-9.26046-6.228409 3.390226.880729 5.409397 1.459649 7.301462 2.595455-14.963434-27.854053-16.174679-31.555605-21.30672-43.5954555z" fill="#1793d1"/><path d="m31.996094 4.0039062c-2.492602 6.1098518-3.998085 10.1071258-6.773438 16.0351558.100344.106349.206074.213963.306641.320313 2.565509-5.540222 4.076236-9.495739 6.466797-15.3554688 5.033164 11.8080958 6.374017 15.7338528 20.546875 42.1699218.256783.132381.508303.272095.757812.421875-14.961552-27.85055-16.174277-31.555557-21.304687-43.5917968zm-7.583985 17.7402348c-3.55224 7.410947-9.117977 17.967312-20.412109 38.255859.2790559-.161065.5328222-.303755.8066406-.460938 10.6894664-19.23169 16.1493604-29.584532 19.6054684-36.794921 1.859155 1.563221 3.940711 2.755357 7.587891 4.255859-1.255078-.877594-2.226937-1.656568-3.101562-2.404297-1.850594-.919004-3.240152-1.803748-4.486329-2.851562zm21.587891 24.255859c4.932361 2.531168 6.941456 4.432058 9.259766 6.228516 1.229187 2.278946 2.565261 4.753961 3.958984 7.326172.264967.152027.511599.289674.78125.445312-1.726691-3.178101-3.268536-6.042917-4.740234-8.771484-1.669119-1.2934-3.194874-2.644305-5.75-4.242188-1.011047-.31709-2.126914-.627084-3.509766-.986328zm-20.935547 1.345703c-.000831.027003-.005189.053032-.005859.080078l-.009766.285157c-.007833.983551.076457 1.936813.230469 2.84375.063846-.012396.127517-.030961.191406-.042969-.231334-.994715-.371294-2.059166-.40625-3.166016zm13.935547.306641c-.033874 1.014229-.147007 1.994024-.347656 2.902344.053323.010429.106845.02641.160156.037109.102697-.675308.18134-1.368796.199219-2.091797.006998-.282476-.001916-.565238-.011719-.847656z" fill="#fff" opacity=".2"/></g></svg>

<svg xmlns="http://www.w3.org/2000/svg" width="64" height="64" version="1.1">
 <path style="opacity:0.2;fill-rule:evenodd" d="M 31.995177,5.0013995 C 29.502112,11.112323 27.998486,15.109554 25.222845,21.038199 26.924609,22.841797 28.607531,24.627869 32,27 28.35282,25.499498 26.271095,24.307299 24.41194,22.744078 20.8597,30.155025 15.294132,40.711453 4.0000002,61 12.876822,55.876484 19.057757,52.717703 25.471058,51.512319 25.195678,50.328213 25.039098,49.04737 25.049741,47.710946 l 0.0098,-0.284337 C 25.200382,41.740721 28.921032,37.007676 32.362919,37 c 3.441888,-0.0077 6.788998,5.814788 6.648129,11.500678 -0.02646,1.070005 -0.147212,2.099133 -0.358095,3.05378 C 44.99624,52.795122 51.243325,55.945783 60,61 58.273309,57.821899 56.732158,54.956976 55.26046,52.228409 52.94215,50.431951 50.932361,48.531168 46,46 c 3.390226,0.880729 5.409397,1.459649 7.301462,2.595455 C 38.338028,20.741402 37.126783,17.03985 31.994742,4.9999995 Z"/>
 <path d="M 31.995177,4.0013995 C 29.502112,10.112323 27.998486,14.109554 25.222845,20.038199 26.924609,21.841797 28.607531,23.627869 32,26 28.35282,24.499498 26.271095,23.307299 24.41194,21.744078 20.8597,29.155025 15.294132,39.711453 4.0000002,60 12.876822,54.876484 19.057757,51.717703 25.471058,50.512319 25.195678,49.328213 25.039098,48.04737 25.049741,46.710946 l 0.0098,-0.284337 C 25.200382,40.740721 28.921032,36.007676 32.362919,36 c 3.441888,-0.0077 6.788998,5.814788 6.648129,11.500678 -0.02646,1.070005 -0.147212,2.099133 -0.358095,3.05378 C 44.99624,51.795122 51.243325,54.945783 60,60 58.273309,56.821899 56.732158,53.956976 55.26046,51.228409 52.94215,49.431951 50.932361,47.531168 46,45 c 3.390226,0.880729 5.409397,1.459649 7.301462,2.595455 C 38.338028,19.741402 37.126783,16.03985 31.994742,3.9999995 Z" style="fill:#1793d1;fill-rule:evenodd"/>
 <path style="fill:#ffffff;fill-rule:evenodd;opacity:0.2" d="M 31.996094 4.0039062 C 29.503492 10.113758 27.998009 14.111032 25.222656 20.039062 C 25.323 20.145411 25.42873 20.253025 25.529297 20.359375 C 28.094806 14.819153 29.605533 10.863636 31.996094 5.0039062 C 37.029258 16.812002 38.370111 20.737759 52.542969 47.173828 C 52.799752 47.306209 53.051272 47.445923 53.300781 47.595703 C 38.339229 19.745153 37.126504 16.040146 31.996094 4.0039062 z M 24.412109 21.744141 C 20.859869 29.155088 15.294132 39.711453 4 60 C 4.2790559 59.838935 4.5328222 59.696245 4.8066406 59.539062 C 15.496107 40.307372 20.956001 29.95453 24.412109 22.744141 C 26.271264 24.307362 28.35282 25.499498 32 27 C 30.744922 26.122406 29.773063 25.343432 28.898438 24.595703 C 27.047844 23.676699 25.658286 22.791955 24.412109 21.744141 z M 46 46 C 50.932361 48.531168 52.941456 50.432058 55.259766 52.228516 C 56.488953 54.507462 57.825027 56.982477 59.21875 59.554688 C 59.483717 59.706715 59.730349 59.844362 60 60 C 58.273309 56.821899 56.731464 53.957083 55.259766 51.228516 C 53.590647 49.935116 52.064892 48.584211 49.509766 46.986328 C 48.498719 46.669238 47.382852 46.359244 46 46 z M 25.064453 47.345703 C 25.063622 47.372706 25.059264 47.398735 25.058594 47.425781 L 25.048828 47.710938 C 25.040995 48.694489 25.125285 49.647751 25.279297 50.554688 C 25.343143 50.542292 25.406814 50.523727 25.470703 50.511719 C 25.239369 49.517004 25.099409 48.452553 25.064453 47.345703 z M 39 47.652344 C 38.966126 48.666573 38.852993 49.646368 38.652344 50.554688 C 38.705667 50.565117 38.759189 50.581098 38.8125 50.591797 C 38.915197 49.916489 38.99384 49.223001 39.011719 48.5 C 39.018717 48.217524 39.009803 47.934762 39 47.652344 z"/>
</svg>
